Img/undo-arrow.svg

<?xml version="1.0" encoding="iso-8859-1"?>
<!-- Generator: Adobe Illustrator 16.0.0, SVG Export Plug-In . SVG Version: 6.00 Build 0)  -->
<!DOCTYPE svg PUBLIC "-//W3C//DTD SVG 1.1//EN" "http://www.w3.org/Graphics/SVG/1.1/DTD/svg11.dtd">
<svg version="1.1" id="Capa_1" xmlns="http://www.w3.org/2000/svg" xmlns:xlink="http://www.w3.org/1999/xlink" x="0px" y="0px"
	 width="438.536px" height="438.536px" viewBox="0 0 438.536 438.536" style="enable-background:new 0 0 438.536 438.536;"
	 xml:space="preserve">
<g>
	<path d="M421.125,134.191c-11.608-27.03-27.217-50.347-46.819-69.949C354.7,44.639,331.384,29.033,304.353,17.42
		C277.325,5.807,248.969,0.005,219.275,0.005c-27.978,0-55.052,5.277-81.227,15.843C111.879,26.412,88.61,41.305,68.243,60.531
		l-37.12-36.835c-5.711-5.901-12.275-7.232-19.701-3.999C3.807,22.937,0,28.554,0,36.547v127.907c0,4.948,1.809,9.231,5.426,12.847
		c3.619,3.617,7.902,5.426,12.85,5.426h127.907c7.996,0,13.61-3.807,16.846-11.421c3.234-7.423,1.903-13.988-3.999-19.701
		l-39.115-39.398c13.328-12.563,28.553-22.222,45.683-28.98c17.131-6.757,35.021-10.138,53.675-10.138
		c19.793,0,38.687,3.858,56.674,11.563c17.99,7.71,33.544,18.131,46.679,31.265c13.134,13.131,23.555,28.69,31.265,46.679
		c7.703,17.987,11.56,36.875,11.56,56.674c0,19.798-3.856,38.686-11.56,56.672c-7.71,17.987-18.131,33.544-31.265,46.679
		c-13.135,13.134-28.695,23.558-46.679,31.265c-17.987,7.707-36.881,11.561-56.674,11.561c-22.651,0-44.064-4.949-64.241-14.843
		c-20.174-9.894-37.209-23.883-51.104-41.973c-1.331-1.902-3.521-3.046-6.567-3.429c-2.856,0-5.236,0.855-7.139,2.566
		l-39.114,39.402c-1.521,1.53-2.33,3.478-2.426,5.853c-0.094,2.385,0.527,4.524,1.858,6.427
		c20.749,25.125,45.871,44.587,75.373,58.382c29.502,13.798,60.625,20.701,93.362,20.701c29.694,0,58.05-5.808,85.078-17.416
		c27.031-11.607,50.34-27.22,69.949-46.821c19.605-19.609,35.211-42.921,46.822-69.949s17.411-55.392,17.411-85.08
		C438.536,189.569,432.732,161.22,421.125,134.191z"/>
</g>
<g>
</g>
<g>
</g>
<g>
</g>
<g>
</g>
<g>
</g>
<g>
</g>
<g>
</g>
<g>
</g>
<g>
</g>
<g>
</g>
<g>
</g>
<g>
</g>
<g>
</g>
<g>
</g>
<g>
</g>
</svg>

<svg width="439" height="439" viewBox="0 0 439 439" fill="none" xmlns="http://www.w3.org/2000/svg">
<path d="M421.125 134.191C409.517 107.161 393.908 83.844 374.306 64.242C354.7 44.639 331.384 29.033 304.353 17.42C277.325 5.80701 248.969 0.00500488 219.275 0.00500488C191.297 0.00500488 164.223 5.282 138.048 15.848C111.879 26.412 88.61 41.305 68.243 60.531L31.123 23.696C25.412 17.795 18.848 16.464 11.422 19.697C3.807 22.937 0 28.554 0 36.547V164.454C0 169.402 1.809 173.685 5.426 177.301C9.045 180.918 13.328 182.727 18.276 182.727H146.183C154.179 182.727 159.793 178.92 163.029 171.306C166.263 163.883 164.932 157.318 159.03 151.605L119.915 112.207C133.243 99.644 148.468 89.985 165.598 83.227C182.729 76.47 200.619 73.089 219.273 73.089C239.066 73.089 257.96 76.947 275.947 84.652C293.937 92.362 309.491 102.783 322.626 115.917C335.76 129.048 346.181 144.607 353.891 162.596C361.594 180.583 365.451 199.471 365.451 219.27C365.451 239.068 361.595 257.956 353.891 275.942C346.181 293.929 335.76 309.486 322.626 322.621C309.491 335.755 293.931 346.179 275.947 353.886C257.96 361.593 239.066 365.447 219.273 365.447C196.622 365.447 175.209 360.498 155.032 350.604C134.858 340.71 117.823 326.721 103.928 308.631C102.597 306.729 100.407 305.585 97.361 305.202C94.505 305.202 92.125 306.057 90.222 307.768L51.108 347.17C49.587 348.7 48.778 350.648 48.682 353.023C48.588 355.408 49.209 357.547 50.54 359.45C71.289 384.575 96.411 404.037 125.913 417.832C155.415 431.63 186.538 438.533 219.275 438.533C248.969 438.533 277.325 432.725 304.353 421.117C331.384 409.51 354.693 393.897 374.302 374.296C393.907 354.687 409.513 331.375 421.124 304.347C432.735 277.319 438.535 248.955 438.535 219.267C438.536 189.569 432.732 161.22 421.125 134.191Z" fill="#1B2732"/>
</svg>
